X:1
T:Title
%%score { 1 | ( 2 3 ) }
L:1/8
Q:1/4=100
M:4/4
K:D
V:1 treble nm="Grand Piano"
V:2 bass 
V:3 bass 
V:1
 [FA]2 [FA]2 [GB]A[DF]G | [FA]2 [FA]2 [GB]A[DF]G | [DFA]2 [Fd]2 [Ec]3 [DB] | %3
 [A,CA]2 [B,E^G]2 [CEA]4 | [FA]2 [FA]2 [GB]A[DF]G | [FA]2 [FA]2 [GB]A[DF]G | %6
 [DFA]2 [Fd]2 [Ec]3 [DB] | [A,CA]2 [B,E^G]2 [CEA]4 | [CE]3 [DF] [EG]2 [DF][CE] | %9
 [DF]2 [FA]2 [GB]2 [FA]2 | [CE]3 [DF] [EG]2 [DF][CE] | [DF]2 [FA]2 [GB]2 [FA]2 | %12
 [Fd]3 [Fd] [Fd]2 [Fd]2 | [Fd]2 [FA]2 [GB]2 [FA]2 | [FA]3 [FA] [GB]2 [Ge]2 | [Fd]2 [Ec]2 [Fd]4 |] %16
V:2
 [D,D]2 [D,D]2 z F z E | [D,D]2 [D,D]2 z F z E | z4 A,4 | E,2 E,2 A,,4 | [D,D]2 [D,D]2 z F z E | %5
 [D,D]2 [D,D]2 z F z E | z4 A,4 | E,2 E,2 A,,4 | [A,,A,]3 [A,,A,] [A,,A,]2 [A,,A,]2 | %9
 [D,A,]2 [D,A,]2 [D,G,]2 [D,A,]2 | [A,,A,]3 [A,,A,] [A,,A,]2 [D,A,]2 | [D,A,]2 [D,B,]2 [D,A,]4 | %12
 [D,A,]3 [D,A,] [D,A,]2 [D,A,]2 | [D,A,]2 [D,D]2 [G,D]2 [D,D]2 | [D,D]3 [D,D] [G,D]2 [C,A,]2 | %15
 [D,A,]2 [A,,A,]2 [D,A,]4 |] %16
V:3
 z4 [D,D]2 D,2 | z4 [D,D]2 D,2 | D,2 [D,A,]2 z2 z D, | x8 | z4 [D,D]2 D,2 | z4 [D,D]2 D,2 | %6
 D,2 [D,A,]2 z2 z D, | x8 | x8 | x8 | x8 | x8 | x8 | x8 | x8 | x8 |] %16

